X: 4222
M: 6/8
L: 1/8
K: A
EAA AGA | Bdd dBd | eae dBG | ABA GFE |\
EAA AGA | Bdd dBd | eae dBG | BAA A :|
|: cd |\
eaa e3 | eaa bag | eaa e3 | BGB dBG |\
eaa e3 | eaa bag | eae dBG | BAA A :|


